X:1
T:Magnificence (Everett), 86.86.88
T:Magnificence (Everett), 86.86.88
T:Asa Brooks Everett (1828–1875)
T:Public Domain Courtesy of the Cyber Hymnal™
C:Asa Brooks Everett (1828–1875)
Z:Public Domain
Z:Courtesy of the Cyber Hymnal™
%%score ( 1 2 ) ( 3 4 )
L:1/8
Q:1/4=103
M:4/4
K:A
V:1 treble 
V:2 treble 
V:3 bass 
V:4 bass 
V:1
 [CE]2 | [CA]3 [CE] [Ec]>[DB] [CA]>[EG] | [DF]6 [DF]2 | [CE]3 [CE] [CE]2 [B,D]2 | [A,C]6 [CE]2 | %5
 [CA]3 [CE] [Ec]>[DB] [CA]>[EG] | [DF]6 [DF]2 | [CE]3 [CE] [B,E]2 (FG) | [CA]6 [EA]2 | %9
 [EG]3 [EA] [EB]2 [EG]2 | [EA]3 [EB] !fermata![Ec]2 [Ae]2 | [Ae]2 [Ac]2 [Ac]2 [FB]2 | [EA]4 [EG]4 | %13
 [EA]6 |] %14
V:2
 x2 | x8 | x8 | x8 | x8 | x8 | x8 | x6 D2 | x8 | x8 | x8 | x8 | x8 | x6 |] %14
V:3
 [A,,A,]2 | [A,,E,]3 [A,,A,] [A,,A,]>[A,,A,] [A,,A,]>[C,A,] | [D,A,]6 [D,A,]2 | %3
 [E,A,]3 [E,A,] [E,A,]2 E,2 | [A,,E,]6 [A,,E,]2 | [A,,E,]3 [A,,A,] [A,,A,]>[A,,A,] [A,,A,]>[C,A,] | %6
 [D,A,]6 [D,A,]2 | [E,A,]3 [E,A,] [E,G,]2 [E,B,]2 | [A,,A,]6 [A,,A,C]2 | %9
 [E,B,]3 [E,C] [E,D]2 [E,B,]2 | [A,C]3 [A,D] !fermata![A,E]2 [A,C]2 | [A,C]2 [A,E]2 [A,E]2 [D,D]2 | %12
 [E,C]4 [E,B,]4 | [A,,A,C]6 |] %14
V:4
 x2 | x8 | x8 | x6 E,2 | x8 | x8 | x8 | x8 | x8 | x8 | x8 | x8 | x8 | x6 |] %14

